X:886
T:Tipperary hills
T:Michael Gorman's
R:Slip Jig
B:O'Neill's 1148
S:My arrangement from various sources
Z:Transcription, arrangement, chords:Mike Long
M:9/8
L:1/8
K:D
"D"F3 A2F A2F|"G"G3 B2G B2G|"D"F3 A2F A2F|"G"Bcd "A"A2G "D"FED:|
"D"d3 f2d "A"cBA|"G"B2e e2d "A"cBA|\
"D"d3 f2d "A"cBA|"G"Bcd "A"A2G "D"FED|
"D"d3 f2d "A"cBA|"G"B2e e2d "A"cBA|\
"D"f2d "A"edc "G"d2B|"A"A2B A2G "D"FED|]
